src/public/images/news-arrow-left.svg

<svg width="16" height="10" viewBox="0 0 16 10" fill="none" xmlns="http://www.w3.org/2000/svg">
<path fill-rule="evenodd" clip-rule="evenodd" d="M15.75 5C15.75 4.58579 15.4142 4.25 15 4.25H1C0.585787 4.25 0.25 4.58579 0.25 5C0.25 5.41421 0.585787 5.75 1 5.75H15C15.4142 5.75 15.75 5.41421 15.75 5Z" fill="#575775"/>
<path fill-rule="evenodd" clip-rule="evenodd" d="M5.53033 0.46967C5.23744 0.176777 4.76256 0.176777 4.46967 0.46967L0.46967 4.46967C0.176777 4.76256 0.176777 5.23744 0.46967 5.53033C0.762563 5.82322 1.23744 5.82322 1.53033 5.53033L5.53033 1.53033C5.82322 1.23744 5.82322 0.762563 5.53033 0.46967Z" fill="#575775"/>
<path fill-rule="evenodd" clip-rule="evenodd" d="M5.53033 9.53033C5.82322 9.23744 5.82322 8.76256 5.53033 8.46967L1.53033 4.46967C1.23744 4.17678 0.762563 4.17678 0.46967 4.46967C0.176777 4.76256 0.176777 5.23744 0.46967 5.53033L4.46967 9.53033C4.76256 9.82322 5.23744 9.82322 5.53033 9.53033Z" fill="#575775"/>
</svg>

<svg xmlns="http://www.w3.org/2000/svg" width="16" height="10" fill="none"><path fill="#575775" fill-rule="evenodd" d="M15.75 5a.75.75 0 0 0-.75-.75H1a.75.75 0 0 0 0 1.5h14a.75.75 0 0 0 .75-.75Z" clip-rule="evenodd"/><path fill="#575775" fill-rule="evenodd" d="M5.53.47a.75.75 0 0 0-1.06 0l-4 4a.75.75 0 0 0 1.06 1.06l4-4a.75.75 0 0 0 0-1.06Z" clip-rule="evenodd"/><path fill="#575775" fill-rule="evenodd" d="M5.53 9.53a.75.75 0 0 0 0-1.06l-4-4A.75.75 0 0 0 .47 5.53l4 4a.75.75 0 0 0 1.06 0Z" clip-rule="evenodd"/></svg>
